X:1
T:Title
%%score { ( 1 3 ) | ( 2 4 ) }
L:1/8
Q:1/4=110
M:4/4
K:F
V:1 treble nm="Grand Piano"
V:3 treble 
V:2 bass 
V:4 bass 
V:1
 A4 A2 A2 | B3 A A4 | [EG]4 [FA]2 G2 | F8 | c4 c2 c2 | d3 c c4 | z4 B2 A2 | [EG]8 | A4 A2 c2 | %9
w: John~R.~Sweney * *|||||||||
 z4 [DB]4 | A4 G2 F2 | [FA]3 [EG] [EG]4 | [A,CF]4 [CG]2 [CFA]2 | [_EFc]3 [DFB] [DFB]4 | %14
w: |||||
 [CFA]4 [CEA]2 [B,EG]2 | [A,CF]8 |] %16
w: ||
V:2
 [F,CF]4 [F,CF]2 [F,CF]2 | [F,DF]3 [F,CF] [F,CF]4 | [C,B,]4 [C,C]2 [C,B,C]2 | [F,A,C]8 | %4
 [F,A,F]4 [F,A,F]2 [F,A,F]2 | [F,B,F]3 [F,A,F] [F,A,F]4 | [A,C]4 [G,CE]2 [F,CF]2 | [C,C]8 | %8
 [F,CF]4 [F,CF]2 [F,A,_E]2 | [B,,B,]3 [B,,F,] F,2 z2 | [F,CF]4 [F,B,C]2 [F,A,C]2 | %11
 [C,C]3 [C,C] [C,C]4 | F,4 _E,2 C,2 | B,,3 B,, B,,4 | C,4 C,2 C,2 | F,8 |] %16
V:3
 x8 | x8 | x8 | x8 | x8 | x8 | F6 z2 | x8 | x8 | [Dc]3 [DB] z2 B,2 | x8 | x8 | x8 | x8 | x8 | x8 |] %16
V:4
 x8 | x8 | x8 | x8 | x8 | x8 | x8 | x8 | x8 | z4 B,,4 | x8 | x8 | x8 | x8 | x8 | x8 |] %16

